X: 5
T: Sporting Paddy
R: reel
M: 4/4
L: 1/8
K: Ador
EA{G}}AA GA{G}}BG|EA{G}}AA {A}GEED|EA{G}AA GA{A}Bd|ed{f}ge dB{B}AG|
EA{G}AA GA{B}AG|EA{G}}AA {A}GEED|EA{G}AA GA (3B^cd|efge d2 z (f||
g)eeg d.B.B.B|geee aeba|geeg dB{^c}BB|edge d2ef|
geeg dB{^c}BB|gefg ~a2ga|b2af {f}g>fed|edge dB{B}AG||
DE~E2 GAAG|DE~E2 FGGF|DE ~E2 GA (3B^cd|ed{f}ge dB{B}AG|
EA{G}AA GA{G}AA|gA{G}AA gAfA|eA{G}AA GABd|efge d2 (3efg||
geeg dBBB|gefg a3b|geeg dBBB|edge d2ef|
geeg dBBB|gefg ~a2ga|b2af gede|fgge dBAG||
{D}+slide+E>E (3.E.E.E GAAG|{D}+slide+E>E (3.E.E.E FGGF|{D}+slide+E>E (3.E.E.E GA (3B^cd|ed{f}ge dB{B}AG|
EA{G}AA GA{G}AA|gA{G}AA gAfA|eA{G}AA GABd|efge d2 z f||
geeg dBBB|gefg a3b|geeg dBBB|edge d2ef|
geeg dBBB|gefg ~a2ga|b2af gede|fgge dBAG|]


Tune 430	Setting 13293

